X:1
T:La Gima Polka
S:From R Crumb and the Cheap Suit Serenaders
N:Transcribed by Ted Ehrhard and Sam Bartlett
M:2/4
K:D
P:A
"D"AB|A2FF F2de|d2AA A2fg|f2de d2AB|AGEC A,2GA |G2EE E2Bc|
B2GG G2ed|cdcA BcB^G|ABAF D2 AB|A2FF F2de|d2AA A2fg|"B7"agfe ^dcBA|
"Em"GEGB e2ef|e2_B=c B2de|d2AB A2^GA|BA^GA f2e2|d2d2 d2:|
K:A
P:B
|:cd|"A"e2e2 a2a2|d2d2 f2f2|"E7"G2G2 d2d2|"A"cdBc A4|CEAc eagf|
^efdB G4|B,DEG Bdgf|"A"ef^de fecA|e2e2 a2a2|d2d2 f2f2|G2G2 d2d2|
"A"cdBc A4|agfe dcB^A|"Bm"B2F2 d2B2|"D"f2d2 "E7" g2e2|"A"a2a2 a2:|
W:Repeat A part 1 X
K:G
P:C
"G"^cdBG DGBd|"Am"^decA EAc=d|"D7"ed^cd efga|"G"bagf gd^cd|
bgaf gefd|"D7"ecAF DFAc|afge fde^c|"G"dBGD B,DGB|
"G"^cdBG DGBd|"Am"^decA EAc=d|"D7"ed^cd efga|"G"bagf g2dd|
"C"egc'2 c'ec'e|"G"dgb2 bdbd|"D7"ed^cd gdba|"G"g2g2 g2:|
W:Repeat A part 1 X
